svg/fluentui-system-icons/ic_fluent_shield_task_16_regular.svg

<svg width="16" height="16" viewBox="0 0 16 16" fill="none" xmlns="http://www.w3.org/2000/svg">
<path d="M10.8536 6.85355C11.0488 6.65829 11.0488 6.34171 10.8536 6.14645C10.6583 5.95118 10.3417 5.95118 10.1464 6.14645L7.5 8.79289L6.35355 7.64645C6.15829 7.45118 5.84171 7.45118 5.64645 7.64645C5.45118 7.84171 5.45118 8.15829 5.64645 8.35355L7.14645 9.85355C7.34171 10.0488 7.65829 10.0488 7.85355 9.85355L10.8536 6.85355ZM8.35464 2.14678C8.15946 1.95123 7.84268 1.95105 7.64728 2.14638C6.40416 3.38902 5.02923 4 3.5 4C3.22386 4 3 4.22386 3 4.5V7.50126C3 10.7196 4.64126 12.9075 7.84189 13.9743C7.94452 14.0086 8.05548 14.0086 8.15811 13.9743C11.3587 12.9075 13 10.7196 13 7.50126V4.5C13 4.22386 12.7761 4 12.5 4C10.9689 4 9.5947 3.38913 8.35464 2.14678ZM4 4.98118C5.47941 4.86879 6.81393 4.25491 8.00042 3.18917C9.18521 4.25528 10.5195 4.86895 12 4.98121V7.50126C12 8.9349 11.6373 10.0655 10.9787 10.9453C10.3414 11.7967 9.37047 12.4885 8 12.9715C6.62953 12.4885 5.65858 11.7967 5.02127 10.9453C4.36269 10.0655 4 8.9349 4 7.50126V4.98118Z" fill="#212121"/>
</svg>

<svg xmlns="http://www.w3.org/2000/svg" width="16" height="16"><path d="M10.854 6.854a.5.5 0 0 0-.708-.708L7.5 8.793 6.354 7.646a.5.5 0 1 0-.708.708l1.5 1.5a.5.5 0 0 0 .708 0l3-3Zm-2.5-4.707a.5.5 0 0 0-.707 0C6.404 3.388 5.03 4 3.5 4a.5.5 0 0 0-.5.5v3.001c0 3.219 1.641 5.407 4.842 6.473a.499.499 0 0 0 .316 0C11.358 12.908 13 10.72 13 7.501V4.5a.5.5 0 0 0-.5-.5c-1.531 0-2.905-.61-4.145-1.853ZM4 4.98c1.48-.112 2.814-.726 4-1.792 1.185 1.066 2.52 1.68 4 1.792V7.5c0 1.434-.363 2.564-1.021 3.444-.638.852-1.609 1.543-2.979 2.027-1.37-.483-2.341-1.175-2.979-2.027C4.363 10.065 4 8.935 4 7.501v-2.52Z"/></svg>
